public/icon/Z_ALL/Netcup_B.svg

<?xml version="1.0" encoding="UTF-8"?>
<svg width="1024px" height="1024px" viewBox="0 0 1024 1024" version="1.1" xmlns="http://www.w3.org/2000/svg" xmlns:xlink="http://www.w3.org/1999/xlink">
    <title>Netcup_B</title>
    <g id="ICON-新版方图标" stroke="none" stroke-width="1" fill="none" fill-rule="evenodd">
        <g id="多版本" transform="translate(-2055, -4096)">
            <g id="Netcup" transform="translate(7, 4096)">
                <g id="Netcup_B" transform="translate(2048, 0)">
                    <rect id="蒙版路径" fill="#056372" x="0" y="0" width="1024" height="1024"></rect>
                    <path d="M311,306 L602.75,306 C624.03391,308.847687 639.617243,314.347687 649.5,322.5 C659.382757,330.652313 665.21609,342.81898 667,359 L667,635.5 L712.25,635.5 L712.25,718.75 L576,718.75 L576,407.25 C576.080528,401.741119 574.080528,397.241119 570,393.75 C565.919472,390.258881 560.419472,388.342215 553.5,388 L452.5,388 L452.5,718.75 L354.25,718.75 L354.25,388 L311,388 L311,306 Z" id="矩形" fill="#FFFFFF"></path>
                </g>
            </g>
        </g>
    </g>
</svg>

<svg xmlns="http://www.w3.org/2000/svg" width="1024" height="1024"><g fill="none" fill-rule="evenodd"><path fill="#056372" d="M0 0h1024v1024H0z"/><path fill="#FFF" d="M311 306h291.75c21.284 2.848 36.867 8.348 46.75 16.5 9.883 8.152 15.716 20.319 17.5 36.5v276.5h45.25v83.25H576v-311.5c.08-5.509-1.92-10.009-6-13.5-4.08-3.491-9.58-5.408-16.5-5.75h-101v330.75h-98.25V388H311z"/></g></svg>
